X:35
T:Dusty Miller, The
R:hop jig
H:See also #54
D:Matt Molloy, Sean Keane & Liam O'Flynn: The Fire Aflame
Z:id:hn-slipjig-35
M:9/8
K:G
B2c d2B A2G|F2G A2B cBA|B2c d2B A2G|D2G B2A G3:|
|:Bcd e2f g3|Bcd g2e dBA|Bcd e2f g3|D2G B2A G3:|
<end>
<start>
